
hush


hush

d1
  $ whenmod 4 3 (fast 2)
  $ whenmod 7 5 (fast 4)
  $ sometimes (|* speed "-1")
  $ sometimesBy 0.3 (# crush 4)
  $ sometimesBy 0.4 (stutWith 2 (0.125) (stutWith 8 (0.0625) (|* gain 0.9).(|* hpf 1.2)))
  -- $ degradeBy 0.2
  $ every 6 (# hpf 2400).(# speed (rand + 1))
  $ fast 3
  $ s "[pec|tom|kcks]"
  # n (irand 32)
  # speed (range 1 3 $ slow 3 sine)
  # room 0.6
  # size 0.2
  # delay 0.2
  # distort 0.1
  # hpf 300
  # lpf 20000
  # cut 1
  # cps (140/240)
  # gain 1.2
